svg/color/loomold.svg

<?xml version="1.0" encoding="UTF-8" ?>
<!DOCTYPE svg PUBLIC "-//W3C//DTD SVG 1.1//EN" "http://www.w3.org/Graphics/SVG/1.1/DTD/svg11.dtd">
<svg width="250pt" height="250pt" viewBox="0 0 250 250" version="1.1" xmlns="http://www.w3.org/2000/svg">
<g id="#ffffffff">
<path fill="#ffffff" opacity="1.00" d=" M 0.00 0.00 L 250.00 0.00 L 250.00 250.00 L 0.00 250.00 L 0.00 174.12 C 1.60 186.26 7.77 197.93 17.81 205.15 C 31.85 215.04 45.91 224.91 59.99 234.74 C 77.00 222.82 94.07 210.97 111.05 198.99 C 106.45 195.66 101.78 192.42 97.11 189.20 C 84.74 197.74 72.60 206.68 60.03 214.90 C 52.66 210.50 45.89 205.05 38.73 200.27 C 34.31 197.02 29.59 194.16 25.37 190.63 C 18.23 184.43 14.59 174.38 16.30 165.05 C 17.34 157.96 21.36 151.43 27.08 147.15 C 33.24 142.67 39.60 138.48 45.87 134.16 C 93.48 167.85 141.37 201.17 189.03 234.81 C 200.16 227.41 210.97 219.52 221.98 211.94 C 227.15 208.17 232.79 204.91 237.18 200.18 C 246.32 190.72 250.76 176.99 248.93 163.96 C 247.45 152.02 240.79 140.82 230.98 133.85 C 226.60 130.72 222.19 127.67 217.79 124.57 C 225.59 118.47 234.84 113.81 240.69 105.56 C 248.91 94.58 251.60 79.70 247.59 66.56 C 244.79 57.21 238.87 48.81 230.89 43.17 C 217.53 33.76 204.14 24.41 190.78 14.99 C 189.45 13.47 187.92 15.05 186.74 15.81 C 171.10 26.85 155.39 37.78 139.70 48.75 C 138.39 49.36 139.43 51.05 140.41 51.42 C 144.30 54.15 148.23 56.83 152.08 59.62 C 164.04 51.39 175.85 42.96 187.78 34.71 C 189.03 33.51 190.61 34.35 191.73 35.24 C 202.06 42.58 212.52 49.75 222.82 57.14 C 234.76 66.12 237.02 84.94 227.51 96.48 C 220.97 104.12 211.53 108.36 203.74 114.54 C 157.10 82.18 110.76 49.36 64.28 16.77 C 62.63 15.96 60.74 13.19 58.85 14.84 C 45.31 24.26 31.80 33.75 18.28 43.21 C 7.63 50.82 0.90 63.32 0.00 76.34 L 0.00 0.00 Z" />
<path fill="#ffffff" opacity="1.00" d=" M 26.88 56.83 C 37.88 48.94 49.08 41.31 60.13 33.46 C 103.22 63.85 146.53 93.93 189.52 124.46 C 173.49 135.81 157.41 147.08 141.27 158.28 C 140.21 159.04 139.24 159.91 138.27 160.77 C 142.95 163.86 147.47 167.16 152.06 170.37 C 169.11 158.27 186.38 146.48 203.48 134.45 C 209.14 137.68 214.20 141.85 219.64 145.44 C 225.23 149.13 229.99 154.42 231.96 160.93 C 235.15 169.99 232.92 180.50 226.83 187.83 C 224.44 190.86 221.14 192.94 218.03 195.14 C 209.23 201.30 200.40 207.42 191.63 213.62 C 190.46 214.35 188.98 215.63 187.75 214.26 C 150.71 188.29 113.69 162.28 76.66 136.29 C 71.08 132.26 65.26 128.54 59.86 124.27 C 76.88 112.39 93.95 100.59 110.80 88.48 C 110.53 87.42 109.39 87.02 108.64 86.37 C 104.78 83.78 101.06 80.98 97.15 78.45 C 79.90 90.33 62.77 102.38 45.64 114.44 C 40.85 111.23 36.18 107.84 31.44 104.55 C 26.73 101.42 22.11 97.78 19.46 92.65 C 12.88 81.00 16.00 64.81 26.88 56.83 Z" />
<path fill="#ffffff" opacity="1.00" d=" M 0.00 83.31 C 1.35 92.34 4.71 101.26 10.90 108.11 C 16.65 114.83 24.65 118.89 31.52 124.28 C 27.06 127.58 22.50 130.74 17.98 133.95 C 7.58 141.37 1.02 153.62 0.00 166.30 L 0.00 83.31 Z" />
</g>
<g id="#4bc0c8ff">
<path fill="#4bc0c8" opacity="1.00" d=" M 58.85 14.84 C 60.74 13.19 62.63 15.96 64.28 16.77 C 110.76 49.36 157.10 82.18 203.74 114.54 C 198.96 117.78 194.23 121.10 189.52 124.46 C 146.53 93.93 103.22 63.85 60.13 33.46 C 49.08 41.31 37.88 48.94 26.88 56.83 C 16.00 64.81 12.88 81.00 19.46 92.65 C 22.11 97.78 26.73 101.42 31.44 104.55 C 36.18 107.84 40.85 111.23 45.64 114.44 C 40.92 117.70 36.20 120.96 31.52 124.28 C 24.65 118.89 16.65 114.83 10.90 108.11 C 4.71 101.26 1.35 92.34 0.00 83.31 L 0.00 76.34 C 0.90 63.32 7.63 50.82 18.28 43.21 C 31.80 33.75 45.31 24.26 58.85 14.84 Z" />
<path fill="#4bc0c8" opacity="1.00" d=" M 45.87 134.16 C 50.52 130.85 55.18 127.55 59.86 124.27 C 65.26 128.54 71.08 132.26 76.66 136.29 C 113.69 162.28 150.71 188.29 187.75 214.26 C 188.98 215.63 190.46 214.35 191.63 213.62 C 200.40 207.42 209.23 201.30 218.03 195.14 C 221.14 192.94 224.44 190.86 226.83 187.83 C 232.92 180.50 235.15 169.99 231.96 160.93 C 229.99 154.42 225.23 149.13 219.64 145.44 C 214.20 141.85 209.14 137.68 203.48 134.45 C 208.26 131.17 213.00 127.84 217.79 124.57 C 222.19 127.67 226.60 130.72 230.98 133.85 C 240.79 140.82 247.45 152.02 248.93 163.96 C 250.76 176.99 246.32 190.72 237.18 200.18 C 232.79 204.91 227.15 208.17 221.98 211.94 C 210.97 219.52 200.16 227.41 189.03 234.81 C 141.37 201.17 93.48 167.85 45.87 134.16 Z" />
</g>
<g id="#02819bff">
<path fill="#02819b" opacity="1.00" d=" M 186.74 15.81 C 187.92 15.05 189.45 13.47 190.78 14.99 C 204.14 24.41 217.53 33.76 230.89 43.17 C 238.87 48.81 244.79 57.21 247.59 66.56 C 251.60 79.70 248.91 94.58 240.69 105.56 C 234.84 113.81 225.59 118.47 217.79 124.57 C 213.00 127.84 208.26 131.17 203.48 134.45 C 186.38 146.48 169.11 158.27 152.06 170.37 C 147.47 167.16 142.95 163.86 138.27 160.77 C 139.24 159.91 140.21 159.04 141.27 158.28 C 157.41 147.08 173.49 135.81 189.52 124.46 C 194.23 121.10 198.96 117.78 203.74 114.54 C 211.53 108.36 220.97 104.12 227.51 96.48 C 237.02 84.94 234.76 66.12 222.82 57.14 C 212.52 49.75 202.06 42.58 191.73 35.24 C 190.61 34.35 189.03 33.51 187.78 34.71 C 175.85 42.96 164.04 51.39 152.08 59.62 C 148.23 56.83 144.30 54.15 140.41 51.42 C 139.43 51.05 138.39 49.36 139.70 48.75 C 155.39 37.78 171.10 26.85 186.74 15.81 Z" />
<path fill="#02819b" opacity="1.00" d=" M 45.64 114.44 C 62.77 102.38 79.90 90.33 97.15 78.45 C 101.06 80.98 104.78 83.78 108.64 86.37 C 109.39 87.02 110.53 87.42 110.80 88.48 C 93.95 100.59 76.88 112.39 59.86 124.27 C 55.18 127.55 50.52 130.85 45.87 134.16 C 39.60 138.48 33.24 142.67 27.08 147.15 C 21.36 151.43 17.34 157.96 16.30 165.05 C 14.59 174.38 18.23 184.43 25.37 190.63 C 29.59 194.16 34.31 197.02 38.73 200.27 C 45.89 205.05 52.66 210.50 60.03 214.90 C 72.60 206.68 84.74 197.74 97.11 189.20 C 101.78 192.42 106.45 195.66 111.05 198.99 C 94.07 210.97 77.00 222.82 59.99 234.74 C 45.91 224.91 31.85 215.04 17.81 205.15 C 7.77 197.93 1.60 186.26 0.00 174.12 L 0.00 166.30 C 1.02 153.62 7.58 141.37 17.98 133.95 C 22.50 130.74 27.06 127.58 31.52 124.28 C 36.20 120.96 40.92 117.70 45.64 114.44 Z" />
</g>
</svg>

<?xml version="1.0" encoding="utf-8"?>
<!-- Generator: Adobe Illustrator 26.0.3, SVG Export Plug-In . SVG Version: 6.00 Build 0)  -->
<svg version="1.1" id="Layer_1" xmlns="http://www.w3.org/2000/svg" xmlns:xlink="http://www.w3.org/1999/xlink" x="0px" y="0px"
	 viewBox="0 0 250 250" style="enable-background:new 0 0 250 250;" xml:space="preserve">
<style type="text/css">
	.st0{fill:#FFFFFF;}
	.st1{fill:#4BC0C8;}
	.st2{fill:#02819B;}
</style>
<g id="_x23_ffffffff">
	<path class="st0" d="M26.9,56.8c11-7.9,22.2-15.5,33.2-23.4c43.1,30.4,86.4,60.5,129.4,91c-16,11.3-32.1,22.6-48.2,33.8
		c-1.1,0.8-2,1.6-3,2.5c4.7,3.1,9.2,6.4,13.8,9.6c17.1-12.1,34.3-23.9,51.4-35.9c5.7,3.2,10.7,7.4,16.2,11c5.6,3.7,10.4,9,12.3,15.5
		c3.2,9.1,1,19.6-5.1,26.9c-2.4,3-5.7,5.1-8.8,7.3c-8.8,6.2-17.6,12.3-26.4,18.5c-1.2,0.7-2.7,2-3.9,0.6c-37-26-74.1-52-111.1-78
		c-5.6-4-11.4-7.8-16.8-12c17-11.9,34.1-23.7,50.9-35.8c-0.3-1.1-1.4-1.5-2.2-2.1c-3.9-2.6-7.6-5.4-11.5-7.9
		c-17.2,11.9-34.4,23.9-51.5,36c-4.8-3.2-9.5-6.6-14.2-9.9c-4.7-3.1-9.3-6.8-12-11.9C12.9,81,16,64.8,26.9,56.8z"/>
	<path class="st0" d="M0,83.3c1.4,9,4.7,18,10.9,24.8c5.8,6.7,13.8,10.8,20.6,16.2c-4.5,3.3-9,6.5-13.5,9.7
		c-10.4,7.4-17,19.7-18,32.4V83.3z"/>
</g>
<g id="_x23_4bc0c8ff">
	<path class="st1" d="M58.8,14.8c1.9-1.7,3.8,1.1,5.4,1.9c46.5,32.6,92.8,65.4,139.5,97.8c-4.8,3.2-9.5,6.6-14.2,9.9
		c-43-30.5-86.3-60.6-129.4-91c-11,7.9-22.2,15.5-33.2,23.4c-10.9,8-14,24.2-7.4,35.8c2.7,5.1,7.3,8.8,12,11.9
		c4.7,3.3,9.4,6.7,14.2,9.9c-4.7,3.3-9.4,6.5-14.1,9.8c-6.9-5.4-14.9-9.4-20.6-16.2C4.7,101.3,1.4,92.3,0,83.3v-7
		c0.9-13,7.6-25.5,18.3-33.1C31.8,33.8,45.3,24.3,58.8,14.8z"/>
	<path class="st1" d="M45.9,134.2c4.7-3.3,9.3-6.6,14-9.9c5.4,4.3,11.2,8,16.8,12c37,26,74.1,52,111.1,78c1.2,1.4,2.7,0.1,3.9-0.6
		c8.8-6.2,17.6-12.3,26.4-18.5c3.1-2.2,6.4-4.3,8.8-7.3c6.1-7.3,8.3-17.8,5.1-26.9c-2-6.5-6.7-11.8-12.3-15.5
		c-5.4-3.6-10.5-7.8-16.2-11c4.8-3.3,9.5-6.6,14.3-9.9c4.4,3.1,8.8,6.2,13.2,9.3c9.8,7,16.5,18.2,17.9,30.1
		c1.8,13-2.6,26.8-11.8,36.2c-4.4,4.7-10,8-15.2,11.8c-11,7.6-21.8,15.5-32.9,22.9C141.4,201.2,93.5,167.9,45.9,134.2z"/>
</g>
<g id="_x23_02819bff">
	<path class="st2" d="M186.7,15.8c1.2-0.8,2.7-2.3,4-0.8c13.4,9.4,26.8,18.8,40.1,28.2c8,5.6,13.9,14,16.7,23.4
		c4,13.1,1.3,28-6.9,39c-5.9,8.2-15.1,12.9-22.9,19c-4.8,3.3-9.5,6.6-14.3,9.9c-17.1,12-34.4,23.8-51.4,35.9
		c-4.6-3.2-9.1-6.5-13.8-9.6c1-0.9,1.9-1.7,3-2.5c16.1-11.2,32.2-22.5,48.2-33.8c4.7-3.4,9.4-6.7,14.2-9.9
		c7.8-6.2,17.2-10.4,23.8-18.1c9.5-11.5,7.2-30.4-4.7-39.3c-10.3-7.4-20.8-14.6-31.1-21.9c-1.1-0.9-2.7-1.7-3.9-0.5
		C175.9,43,164,51.4,152.1,59.6c-3.9-2.8-7.8-5.5-11.7-8.2c-1-0.4-2-2.1-0.7-2.7C155.4,37.8,171.1,26.9,186.7,15.8z"/>
	<path class="st2" d="M45.6,114.4c17.1-12.1,34.3-24.1,51.5-36c3.9,2.5,7.6,5.3,11.5,7.9c0.8,0.6,1.9,1,2.2,2.1
		c-16.9,12.1-33.9,23.9-50.9,35.8c-4.7,3.3-9.3,6.6-14,9.9c-6.3,4.3-12.6,8.5-18.8,13c-5.7,4.3-9.7,10.8-10.8,17.9
		c-1.7,9.3,1.9,19.4,9.1,25.6c4.2,3.5,8.9,6.4,13.4,9.6c7.2,4.8,13.9,10.2,21.3,14.6c12.6-8.2,24.7-17.2,37.1-25.7
		c4.7,3.2,9.3,6.5,13.9,9.8c-17,12-34.1,23.8-51.1,35.8c-14.1-9.8-28.1-19.7-42.2-29.6c-10-7.2-16.2-18.9-17.8-31v-7.8
		c1-12.7,7.6-24.9,18-32.4c4.5-3.2,9.1-6.4,13.5-9.7C36.2,121,40.9,117.7,45.6,114.4z"/>
</g>
</svg>
